X: 1
T: The Hare In The Corn
R: jig
M: 6/8
L: 1/8
K: Dmaj
|:F2A AFA|BdB AFE|~F3 EDE|F2D ~D3|
F2A AFA|BdB AFA|Bcd edA|ded d3:|
|:f3 fed|g2e ede|f3 fed|faa bag|
f3 fed|g2e edB|A (3Bcd edA|ded d3:|


Tune 1736	Setting 15167

